X:58
M:6/8
L:1/8
K:G
|: dBG ecA | dBG AFD | dBG efg | ABA AFD | dBG ecA | efg gfe | dcB BAG | DEF G3 :|

